public/assets/img/start4.svg

<svg width="59" height="66" viewBox="0 0 59 66" fill="none" xmlns="http://www.w3.org/2000/svg">
<path d="M0 59.7491V64.3514C0 65.2603 0.740501 66 1.651 66H12.4594C13.3699 66 14.1104 65.2603 14.1104 64.3514V59.7491C14.1104 57.5501 12.6647 55.6825 10.6722 55.042C11.3406 54.2333 11.7431 53.197 11.7431 52.0686C11.7431 49.8213 10.1476 47.9395 8.02849 47.4914V44.2964C8.02849 44.243 8.07187 44.1997 8.12483 44.1997H28.5265V47.4914C26.4073 47.9395 24.8123 49.8213 24.8123 52.0686C24.8123 53.197 25.2144 54.2333 25.8827 55.0425C23.8908 55.6825 22.4446 57.5501 22.4446 59.7491V64.3514C22.4446 65.2603 23.1856 66 24.0961 66H34.9039C35.8144 66 36.5549 65.2603 36.5549 64.3514V63.5035C36.5549 62.9667 36.1196 62.5316 35.5819 62.5316C35.0442 62.5316 34.6083 62.9667 34.6083 63.5035V64.0563H33.4956V59.6066C33.4956 59.0698 33.0598 58.6347 32.522 58.6347C31.9843 58.6347 31.549 59.0698 31.549 59.6066V64.0563H27.451V59.6066C27.451 59.0698 27.0157 58.6347 26.478 58.6347C25.9402 58.6347 25.5044 59.0698 25.5044 59.6066V64.0563H24.3916V59.7491C24.3916 58.0944 25.74 56.748 27.398 56.748H31.602C33.028 56.748 34.2679 57.7626 34.5498 59.1609C34.6558 59.6866 35.1688 60.0275 35.6959 59.9213C36.223 59.816 36.564 59.3034 36.4581 58.7772C36.0979 56.9897 34.7849 55.5828 33.1157 55.0435C33.7851 54.2343 34.1877 53.1975 34.1877 52.0686C34.1877 49.8213 32.5927 47.9395 30.4735 47.4909V44.1997H50.8752C50.9281 44.1997 50.9715 44.243 50.9715 44.2959V47.4909C48.8519 47.9395 47.2569 49.8213 47.2569 52.0686C47.2569 53.1965 47.6589 54.2333 48.3278 55.042C46.3353 55.6825 44.8896 57.5501 44.8896 59.7491V64.3514C44.8896 65.2603 45.6301 66 46.5406 66H57.3485C58.259 66 59 65.2603 59 64.3514V59.7491C59 57.5501 57.5538 55.6825 55.5618 55.042C56.2302 54.2333 56.6322 53.197 56.6322 52.0686C56.6322 49.8213 55.0372 47.9395 52.9181 47.4909V44.2964C52.9181 43.1715 52.0016 42.2566 50.8752 42.2566H30.473V39.0163H42.7771C44.0866 39.0163 45.1519 37.9528 45.1519 36.6456V29.5638C45.1519 25.4605 41.6239 23.9655 41.4736 23.904C41.4676 23.9015 41.461 23.899 41.455 23.8965L33.7624 20.9226V19.4407C34.9549 18.4693 35.7958 17.0841 36.0646 15.507C37.6748 15.2638 38.7558 13.9299 38.7558 12.4238C38.7558 11.7118 38.5116 11.03 38.0748 10.4837V8.15532C38.0748 4.39539 35.655 1.13547 32.0539 0.0422842C31.5409 -0.113813 30.9961 0.175722 30.8398 0.689333C30.6834 1.20244 30.9734 1.74526 31.488 1.90135C34.2633 2.74378 36.1277 5.25695 36.1277 8.15532V9.20923C36.0616 8.91517 35.8427 8.65433 35.5708 8.3507C35.3322 8.08382 34.7445 7.46547 33.997 6.66333C33.7786 6.42868 33.4905 6.26906 33.1616 6.21216C32.8025 6.15023 32.4222 6.21972 32.0968 6.43171C31.7846 6.63564 31.4622 6.82346 31.1328 6.99819C29.0954 8.0803 26.767 8.60499 24.5975 8.44989C23.9568 8.40105 23.3601 8.77115 23.1139 9.36281C23.0862 9.36785 23.0589 9.37288 23.0317 9.37842V8.15532C23.0317 5.32543 24.8406 2.83039 27.5327 1.94617C28.0437 1.77849 28.3211 1.22963 28.1532 0.719546C27.9852 0.209963 27.4349 -0.066984 26.9249 0.100191C23.4317 1.24726 21.0851 4.48401 21.0851 8.15532V10.5451C20.6432 11.0839 20.4041 11.735 20.4041 12.4238C20.4041 13.9511 21.5154 15.2774 23.0933 15.51C23.3692 17.1526 24.257 18.568 25.5301 19.5363V20.9231L17.8462 23.897C17.8401 23.899 17.8341 23.9015 17.8275 23.904C17.8184 23.9081 17.7957 23.9176 17.7614 23.9327C17.2505 24.1629 14.1492 25.7173 14.1492 29.5638V36.6456C14.1492 37.9528 15.2146 39.0163 16.5241 39.0163H28.5265V42.2566H8.12483C6.99794 42.2566 6.0819 43.1715 6.0819 44.2964V47.4914C3.96279 47.9395 2.36728 49.8213 2.36728 52.0686C2.36728 53.197 2.76931 54.2333 3.43819 55.0425C1.44569 55.6825 0 57.5501 0 59.7491ZM32.2411 52.0686C32.2411 53.5772 31.0113 54.8048 29.5 54.8048C27.9882 54.8048 26.7589 53.5772 26.7589 52.0686C26.7589 50.5599 27.9882 49.3323 29.5 49.3323C31.0113 49.3323 32.2411 50.5599 32.2411 52.0686ZM57.0534 59.7491V64.0568H55.9401V59.6066C55.9401 59.0698 55.5043 58.6347 54.9666 58.6347C54.4294 58.6347 53.9935 59.0698 53.9935 59.6066V64.0568H49.8961V59.6066C49.8961 59.0698 49.4602 58.6347 48.9225 58.6347C48.3848 58.6347 47.9495 59.0698 47.9495 59.6066V64.0568H46.8362V59.7491C46.8362 58.0944 48.185 56.748 49.8426 56.748H54.047C55.7046 56.748 57.0534 58.0944 57.0534 59.7491ZM54.6856 52.0686C54.6856 53.5772 53.4563 54.8048 51.9446 54.8048C50.4333 54.8048 49.2035 53.5772 49.2035 52.0686C49.2035 50.5599 50.4333 49.3323 51.9446 49.3323C53.4563 49.3323 54.6856 50.5599 54.6856 52.0686ZM29.6599 18.9583C26.7801 18.9583 24.9475 16.7195 24.9475 14.4138V10.4132C27.6714 10.4998 30.4927 9.7022 32.8328 8.26661C33.5687 9.05414 34.0086 9.51488 34.2124 9.74601V14.4138C34.2124 16.9003 32.182 18.9583 29.6599 18.9583ZM36.159 13.4702V11.3805C36.5655 11.5844 36.8087 11.9868 36.8087 12.4238C36.8087 12.8569 36.5696 13.2652 36.159 13.4702ZM22.3507 12.4238C22.3507 12.0029 22.6261 11.6464 23.0009 11.4389V13.4702C22.5939 13.2678 22.3507 12.8614 22.3507 12.4238ZM29.6599 20.9014C30.4039 20.9014 31.151 20.7685 31.8158 20.5344V21.0767C31.8158 21.688 32.1493 22.2539 32.6683 22.5591C30.9447 24.2731 28.2707 24.2832 26.536 22.6039C27.1055 22.3028 27.4767 21.7021 27.4767 21.0495V20.562C28.1663 20.7856 28.9239 20.9014 29.6599 20.9014ZM16.0963 36.6456V29.5643C16.0963 26.82 18.4116 25.7692 18.563 25.7037C25.1513 23.1538 21.9558 24.3905 24.5818 23.3743L24.9662 23.7822C27.5009 26.4701 31.6595 26.4701 34.1937 23.7817L34.6139 23.3361C38.5041 24.8396 37.1613 24.3205 40.7387 25.7037C42.1178 26.2999 43.2053 27.7919 43.2053 29.5643V36.6456C43.2053 36.8813 43.0131 37.0731 42.7771 37.0731H39.9185V30.7668C39.9185 30.23 39.4826 29.7955 38.9449 29.7955C38.4072 29.7955 37.9719 30.23 37.9719 30.7668V37.0731H21.3298V30.7668C21.3298 30.23 20.8944 29.7955 20.3567 29.7955C19.819 29.7955 19.3832 30.23 19.3832 30.7668V37.0731H16.5246C16.2885 37.0731 16.0963 36.8813 16.0963 36.6456ZM7.05494 49.3323C8.56671 49.3323 9.79601 50.5599 9.79601 52.0686C9.79601 53.5772 8.56671 54.8048 7.05494 54.8048C5.54367 54.8048 4.31387 53.5772 4.31387 52.0686C4.31387 50.5599 5.54367 49.3323 7.05494 49.3323ZM1.94659 59.7491C1.94659 58.0944 3.29543 56.748 4.95299 56.748H9.1574C10.815 56.748 12.1638 58.0944 12.1638 59.7491V64.0568H11.0505V59.6066C11.0505 59.0698 10.6147 58.6347 10.0775 58.6347C9.53975 58.6347 9.10393 59.0698 9.10393 59.6066V64.0568H5.00645V59.6066C5.00645 59.0698 4.57063 58.6347 4.03291 58.6347C3.49519 58.6347 3.05986 59.0698 3.05986 59.6066V64.0568H1.94659V59.7491Z" fill="#90A1AE"/>
</svg>

<svg width="59" height="66" fill="none" xmlns="http://www.w3.org/2000/svg"><path d="M0 59.75v4.601C0 65.261.74 66 1.651 66h10.808c.91 0 1.651-.74 1.651-1.649V59.75a4.953 4.953 0 0 0-3.438-4.707 4.653 4.653 0 0 0 1.071-2.973 4.689 4.689 0 0 0-3.715-4.578v-3.195c0-.053.044-.096.097-.096h20.401v3.291a4.688 4.688 0 0 0-3.714 4.578c0 1.128.402 2.164 1.07 2.973a4.953 4.953 0 0 0-3.437 4.707v4.602c0 .91.74 1.649 1.651 1.649h10.808c.91 0 1.65-.74 1.65-1.649v-.847a.972.972 0 0 0-1.946 0v.552h-1.112v-4.45a.973.973 0 0 0-1.947 0v4.45h-4.098v-4.45a.972.972 0 0 0-1.947 0v4.45h-1.112V59.75a3.007 3.007 0 0 1 3.006-3.001h4.204a3.016 3.016 0 0 1 2.948 2.413.973.973 0 0 0 1.908-.384 4.969 4.969 0 0 0-3.342-3.733 4.653 4.653 0 0 0 1.072-2.975 4.69 4.69 0 0 0-3.715-4.578V44.2h20.402c.053 0 .096.043.096.096v3.195a4.69 4.69 0 0 0-3.714 4.578c0 1.127.402 2.164 1.07 2.973a4.953 4.953 0 0 0-3.437 4.707v4.602c0 .91.74 1.649 1.65 1.649H57.35c.91 0 1.651-.74 1.651-1.649V59.75a4.954 4.954 0 0 0-3.438-4.707 4.653 4.653 0 0 0 1.07-2.973 4.69 4.69 0 0 0-3.714-4.578v-3.195c0-1.124-.916-2.04-2.043-2.04H30.473v-3.24h12.304a2.375 2.375 0 0 0 2.375-2.37v-7.082c0-4.104-3.528-5.599-3.678-5.66l-.019-.008-7.693-2.973V19.44a6.484 6.484 0 0 0 2.303-3.934c1.61-.243 2.69-1.577 2.69-3.083 0-.712-.243-1.394-.68-1.94V8.155c0-3.76-2.42-7.02-6.021-8.113a.971.971 0 1 0-.566 1.86 6.5 6.5 0 0 1 4.64 6.253V9.21c-.066-.294-.285-.555-.557-.858-.239-.267-.826-.886-1.574-1.688a1.484 1.484 0 0 0-1.9-.232c-.312.205-.635.392-.964.567-2.038 1.082-4.366 1.607-6.535 1.452a1.486 1.486 0 0 0-1.484.913l-.082.015V8.155a6.525 6.525 0 0 1 4.5-6.209A.971.971 0 1 0 26.926.1a8.464 8.464 0 0 0-5.84 8.055v2.39a2.94 2.94 0 0 0-.68 1.879 3.12 3.12 0 0 0 2.688 3.086 6.366 6.366 0 0 0 2.437 4.026v1.387l-7.684 2.974-.018.007-.067.029c-.51.23-3.612 1.784-3.612 5.63v7.083a2.376 2.376 0 0 0 2.375 2.37h12.002v3.24H8.125a2.043 2.043 0 0 0-2.043 2.04v3.195a4.689 4.689 0 0 0-3.715 4.578c0 1.128.402 2.164 1.071 2.973A4.952 4.952 0 0 0 0 59.75Zm32.241-7.681a2.742 2.742 0 0 1-5.482 0 2.742 2.742 0 0 1 5.482 0Zm24.812 7.68v4.308H55.94v-4.45a.973.973 0 0 0-1.947 0v4.45h-4.097v-4.45a.973.973 0 0 0-1.947 0v4.45h-1.113v-4.308a3.007 3.007 0 0 1 3.007-3.001h4.204a3.007 3.007 0 0 1 3.006 3.001Zm-2.367-7.68a2.742 2.742 0 0 1-5.483 0 2.742 2.742 0 0 1 5.483 0ZM29.66 18.959c-2.88 0-4.712-2.24-4.712-4.545v-4c2.723.086 5.545-.712 7.885-2.147.736.787 1.176 1.248 1.38 1.479v4.668a4.558 4.558 0 0 1-4.553 4.544Zm6.499-5.489v-2.09a1.163 1.163 0 0 1 0 2.09Zm-13.808-1.046c0-.421.275-.778.65-.985v2.031a1.165 1.165 0 0 1-.65-1.046ZM29.66 20.9c.744 0 1.491-.133 2.156-.367v.543c0 .611.333 1.177.852 1.482-1.723 1.714-4.397 1.724-6.132.045.57-.301.94-.902.94-1.555v-.487c.69.224 1.448.34 2.184.34ZM16.096 36.646v-7.082c0-2.744 2.316-3.795 2.467-3.86l6.019-2.33.384.408c2.535 2.688 6.694 2.688 9.228 0l.42-.446 6.125 2.368c1.379.596 2.466 2.088 2.466 3.86v7.082a.428.428 0 0 1-.428.427H39.92v-6.306a.972.972 0 0 0-.974-.971.972.972 0 0 0-.973.97v6.307H21.33v-6.306a.972.972 0 0 0-.973-.971.972.972 0 0 0-.974.97v6.307h-2.858a.428.428 0 0 1-.429-.427ZM7.055 49.332a2.742 2.742 0 0 1 2.741 2.737 2.742 2.742 0 0 1-5.482 0 2.742 2.742 0 0 1 2.74-2.737ZM1.947 59.75a3.007 3.007 0 0 1 3.006-3.001h4.204a3.007 3.007 0 0 1 3.007 3.001v4.308H11.05v-4.45a.973.973 0 0 0-1.946 0v4.45H5.006v-4.45a.973.973 0 0 0-1.946 0v4.45H1.947v-4.308Z" fill="#90A1AE"/></svg>
